src/components/icon/facebook-post.svg

<svg xmlns="http://www.w3.org/2000/svg" width="16" height="16" viewBox="0 0 40 40">
<path d="M30.658853,23.1637136 L32.5577235,21.2628435 L29.713048,18.4362365 L27.819713,20.3315652 C27.8198858,20.3317373 27.8200586,20.3319095 27.8202313,20.3320818 L30.658853,23.1637136 Z M29.2307231,24.5933474 L26.3915833,21.7611988 L17.7523063,30.4095732 L17.2259843,33.7746343 L20.5969577,33.2362043 L29.2307231,24.5933474 Z M21.7983015,34.8929581 C21.6474734,35.0439981 21.4525672,35.1435078 21.2415383,35.1772145 L16.1718929,35.9869654 C15.4935326,36.0953167 14.9065164,35.5120819 15.0124229,34.8349644 L15.8039548,29.7742732 C15.8369077,29.5635876 15.9359168,29.3687295 16.0867759,29.2176585 L28.9935606,16.2969491 C29.3878524,15.902103 30.0283634,15.9008609 30.4241913,16.2941746 L34.7023049,20.5451149 C35.0981429,20.9384387 35.0993882,21.5773925 34.7050862,21.9722487 L21.7983015,34.8929581 Z M17,15 C17,16.1045695 16.1045695,17 15,17 L11.7297539,17 L11.7297539,10.4166632 L13.9394762,10.4166632 L14.2703507,7.85102004 L11.7297539,7.85102004 L11.7297539,6.21301869 C11.7297539,5.47020581 11.936023,4.96400354 13.0012069,4.96400354 L14.3597976,4.9634096 L14.3597976,2.66867806 C14.1248346,2.63741117 13.318361,2.56755604 12.3800913,2.56755604 C10.4212954,2.56755604 9.08025073,3.76320713 9.08025073,5.95892819 L9.08025073,7.85102004 L6.86485571,7.85102004 L6.86485571,10.4166632 L9.08025073,10.4166632 L9.08025073,17 L2,17 C0.8954305,17 5.55111512e-17,16.1045695 0,15 L0,2 C0,0.8954305 0.8954305,1.77635684e-15 2,1.77635684e-15 L15,1.77635684e-15 C16.1045695,1.77635684e-15 17,0.8954305 17,2 L17,15 Z M37,12 C38.6568542,12 40,13.3431458 40,15 L40,37 C40,38.6568542 38.6568542,40 37,40 L11,40 C9.34314575,40 8,38.6568542 8,37 L8,21.0452881 C8,20.4477153 8.44771525,20 9,20 C9.55228475,20 10,20.4477153 10,21 C10,21.0101182 10,26.3434516 10,37 C10,37.5522847 10.4477153,38 11,38 L37,38 C37.5522847,38 38,37.5522847 38,37 L38,15 C38,14.4477153 37.5522847,14 37,14 L21,14 C20.4477153,14 20,13.5522847 20,13 C20,12.4477153 20.4477153,12 21,12 L37,12 Z"/>
</svg>

<svg xmlns="http://www.w3.org/2000/svg" width="16" height="16" viewBox="0 0 40 40"><path d="M30.659 23.164l1.899-1.901-2.845-2.827-1.893 1.896 2.839 2.832zm-1.428 1.43l-2.84-2.833-8.639 8.649-.526 3.365 3.371-.539 8.634-8.643zm-7.433 10.299c-.15.151-.345.25-.556.284l-5.07.81a1.01 1.01 0 0 1-1.16-1.152l.792-5.06c.033-.211.132-.406.283-.557l12.907-12.921a1.013 1.013 0 0 1 1.43-.003l4.278 4.251c.396.393.397 1.032.003 1.427L21.798 34.893zM17 15a2 2 0 0 1-2 2h-3.27v-6.583h2.21l.33-2.566h-2.54V6.213c0-.743.206-1.249 1.271-1.249h1.359V2.668a18.162 18.162 0 0 0-1.98-.101c-1.959 0-3.3 1.195-3.3 3.39v1.893H6.865v2.566H9.08V17H2a2 2 0 0 1-2-2V2a2 2 0 0 1 2-2h13a2 2 0 0 1 2 2v13zm20-3a3 3 0 0 1 3 3v22a3 3 0 0 1-3 3H11a3 3 0 0 1-3-3V21.045C8 20.448 8.448 20 9 20a1 1 0 0 1 1 1v16a1 1 0 0 0 1 1h26a1 1 0 0 0 1-1V15a1 1 0 0 0-1-1H21a1 1 0 0 1 0-2h16z"/></svg>
